Yosa-Max/apps/scalable/libreoffice-template.svg

<?xml version="1.0" encoding="UTF-8"?>
<svg id="svg38" version="1.1" viewBox="0 0 48 48" xmlns="http://www.w3.org/2000/svg" xmlns:xlink="http://www.w3.org/1999/xlink">
 <defs id="defs42">
  <linearGradient id="linearGradient891" x1="-31.749992" x2="-31.749992" y1="47.293053" y2="3.2930527" gradientTransform="translate(55.75,-1.2929688)" gradientUnits="userSpaceOnUse">
   <stop id="stop885" style="stop-color:#1d9ef4" offset="0"/>
   <stop id="stop887" style="stop-color:#59c1f9" offset="1"/>
  </linearGradient>
 </defs>
 <path id="rect883" d="m7 2v44h34v-29.171875l-13.414062-13.414063-1.414063-1.4140624z" style="fill:url(#linearGradient891);paint-order:stroke fill markers"/>
 <path id="rect893" d="m29 2 12 12v-12z" style="fill:#0c90e8;paint-order:stroke fill markers"/>
 <path id="path32" d="m30.095238 23.619048h-1.142858v-3.047619c0-0.838096-0.685713-1.52381-1.523809-1.52381h-3.047621v-1.142858c0-1.066666-0.838093-1.904761-1.904759-1.904761-1.066667 0-1.904763 0.838095-1.904763 1.904761v1.142858h-3.047618c-0.838095 0-1.523809 0.685714-1.523809 1.52381v2.895237h1.142857c1.142856 0 2.057143 0.914286 2.057143 2.057143s-0.914287 2.057143-2.057143 2.057143h-1.142857v2.895238c0 0.838094 0.685714 1.52381 1.523809 1.52381h2.895239v-1.142858c0-1.142857 0.914283-2.057142 2.057142-2.057142 1.142856 0 2.057142 0.914285 2.057142 2.057142v1.142858h2.895238c0.838096 0 1.523809-0.685716 1.523809-1.52381v-3.047619h1.142858c1.066667 0 1.904762-0.838096 1.904762-1.904762 0-1.066667-0.838095-1.904761-1.904762-1.904761z" style="fill:#ffffff;stroke-width:.03991685"/>
</svg>

<?xml version="1.0" encoding="UTF-8" standalone="no"?>
<svg
   xmlns:dc="http://purl.org/dc/elements/1.1/"
   xmlns:cc="http://creativecommons.org/ns#"
   xmlns:rdf="http://www.w3.org/1999/02/22-rdf-syntax-ns#"
   xmlns:svg="http://www.w3.org/2000/svg"
   xmlns="http://www.w3.org/2000/svg"
   xmlns:xlink="http://www.w3.org/1999/xlink"
   xmlns:sodipodi="http://sodipodi.sourceforge.net/DTD/sodipodi-0.dtd"
   xmlns:inkscape="http://www.inkscape.org/namespaces/inkscape"
   height="48"
   width="48"
   version="1.1"
   id="svg38"
   sodipodi:docname="libreoffice-template.svg"
   inkscape:version="0.92.2 2405546, 2018-03-11">
  <metadata
     id="metadata44">
    <rdf:RDF>
      <cc:Work
         rdf:about="">
        <dc:format>image/svg+xml</dc:format>
        <dc:type
           rdf:resource="http://purl.org/dc/dcmitype/StillImage" />
      </cc:Work>
    </rdf:RDF>
  </metadata>
  <defs
     id="defs42">
    <linearGradient
       id="b-3"
       gradientUnits="userSpaceOnUse"
       x1="407.0036"
       x2="407.0036"
       xlink:href="#a"
       y1="544.31207"
       y2="503.15005"
       gradientTransform="translate(-328.02906,-503.05224)" />
    <linearGradient
       id="linearGradient953">
      <stop
         offset="0"
         stop-color="#3889e9"
         id="stop2-6" />
      <stop
         offset="1"
         stop-color="#5ea5fb"
         id="stop4-7" />
    </linearGradient>
    <linearGradient
       gradientUnits="userSpaceOnUse"
       y2="3.2930527"
       x2="-31.749992"
       y1="47.293053"
       x1="-31.749992"
       id="linearGradient891"
       xlink:href="#linearGradient889"
       inkscape:collect="always"
       gradientTransform="translate(55.75,-1.2929688)" />
    <linearGradient
       id="linearGradient889"
       inkscape:collect="always">
      <stop
         id="stop885"
         offset="0"
         style="stop-color:#1d9ef4;stop-opacity:1" />
      <stop
         id="stop887"
         offset="1"
         style="stop-color:#59c1f9;stop-opacity:1" />
    </linearGradient>
  </defs>
  <sodipodi:namedview
     pagecolor="#ffffff"
     bordercolor="#666666"
     borderopacity="1"
     objecttolerance="10"
     gridtolerance="10"
     guidetolerance="10"
     inkscape:pageopacity="0"
     inkscape:pageshadow="2"
     inkscape:window-width="1366"
     inkscape:window-height="699"
     id="namedview40"
     showgrid="false"
     inkscape:zoom="10.145833"
     inkscape:cx="24"
     inkscape:cy="24"
     inkscape:window-x="0"
     inkscape:window-y="0"
     inkscape:window-maximized="1"
     inkscape:current-layer="svg38" />
  <linearGradient
     id="a">
    <stop
       offset="0"
       stop-color="#3889e9"
       id="stop2" />
    <stop
       offset="1"
       stop-color="#5ea5fb"
       id="stop4" />
  </linearGradient>
  <linearGradient
     id="b"
     gradientUnits="userSpaceOnUse"
     x1="407.003596286528"
     x2="407.003596286528"
     xlink:href="#a"
     y1="544.312046715464"
     y2="503.150053115464"
     gradientTransform="translate(-384.57143,-499.798)" />
  <linearGradient
     gradientUnits="userSpaceOnUse"
     x1="-.5"
     x2="536"
     xlink:href="#a"
     y1="267.75"
     y2="267.75"
     id="linearGradient8" />
  <linearGradient
     id="c"
     gradientTransform="matrix(1.8137796,0,0,1.7592729,-16.27638,-1778.6548)"
     gradientUnits="userSpaceOnUse"
     x1="17"
     x2="17"
     y1="1036.3622"
     y2="1012.3622">
    <stop
       offset="0"
       stop-color="#4c93dd"
       id="stop10" />
    <stop
       offset="1"
       stop-color="#56c5fd"
       id="stop12" />
  </linearGradient>
  <linearGradient
     id="d"
     gradientTransform="matrix(1.2132726,0,0,1.7592729,388.2448,-1278.8568)"
     gradientUnits="userSpaceOnUse"
     x1="33.461716"
     x2="34.116894"
     y1="1013.622"
     y2="1037.2084">
    <stop
       offset="0"
       stop-color="#f6fbff"
       id="stop15" />
    <stop
       offset="1"
       stop-color="#eaeff2"
       id="stop17" />
  </linearGradient>
  <circle
     style="fill:url(#b-3)"
     id="circle22"
     r="0"
     cy="20.678719"
     cx="80.444511" />
  <text
     xml:space="preserve"
     style="font-style:normal;font-weight:normal;font-size:40px;line-height:1.25;font-family:sans-serif;letter-spacing:0px;word-spacing:0px;fill:#000000;fill-opacity:1;stroke:none"
     x="-31.496216"
     y="25.851976"
     id="text879"><tspan
       sodipodi:role="line"
       id="tspan877"
       x="-31.496216"
       y="61.242599" /></text>
  <path
     inkscape:connector-curvature="0"
     style="opacity:1;fill:url(#linearGradient891);fill-opacity:1;stroke:none;stroke-width:3;stroke-linecap:round;stroke-linejoin:miter;stroke-miterlimit:4;stroke-dasharray:none;stroke-opacity:1;paint-order:stroke fill markers"
     d="M 7,2 V 46 H 41 V 16.828125 L 27.585938,3.4140624 26.171875,2 Z"
     id="rect883" />
  <path
     inkscape:connector-curvature="0"
     style="opacity:1;fill:#0c90e8;fill-opacity:1;stroke:none;stroke-width:3;stroke-linecap:round;stroke-linejoin:miter;stroke-miterlimit:4;stroke-dasharray:none;stroke-opacity:1;paint-order:stroke fill markers"
     d="M 29,2 41,14 V 2 Z"
     id="rect893" />
  <path
     d="M 30.095238,23.619048 H 28.95238 v -3.047619 c 0,-0.838096 -0.685713,-1.52381 -1.523809,-1.52381 H 24.38095 V 17.904761 C 24.38095,16.838095 23.542857,16 22.476191,16 c -1.066667,0 -1.904763,0.838095 -1.904763,1.904761 v 1.142858 H 17.52381 c -0.838095,0 -1.523809,0.685714 -1.523809,1.52381 v 2.895237 h 1.142857 c 1.142856,0 2.057143,0.914286 2.057143,2.057143 0,1.142857 -0.914287,2.057143 -2.057143,2.057143 h -1.142857 v 2.895238 c 0,0.838094 0.685714,1.52381 1.523809,1.52381 h 2.895239 v -1.142858 c 0,-1.142857 0.914283,-2.057142 2.057142,-2.057142 1.142856,0 2.057142,0.914285 2.057142,2.057142 V 32 h 2.895238 c 0.838096,0 1.523809,-0.685716 1.523809,-1.52381 v -3.047619 h 1.142858 C 31.161905,27.428571 32,26.590475 32,25.523809 32,24.457142 31.161905,23.619048 30.095238,23.619048 Z"
     id="path32"
     inkscape:connector-curvature="0"
     style="fill:#ffffff;fill-opacity:1;stroke-width:0.03991685" />
</svg>
